include/LD/assets/icons/utility/dayview.svg

<?xml version="1.0"?><svg xmlns="http://www.w3.org/2000/svg" width="52" height="52" viewBox="0 0 52 52"><path fill="#fff" d="m44 7h-5v-2c0-1.6-1.3-3-3-3-1.6 0-3 1.3-3 3v2h-14v-2c0-1.6-1.3-3-3-3-1.6 0-3 1.3-3 3v2h-5c-2.2 0-4 1.8-4 4v2.5c0 0.8 0.7 1.5 1.5 1.5h41c0.8 0 1.5-0.7 1.5-1.5v-2.5c0-2.2-1.8-4-4-4z m2.5 13h-41c-0.8 0-1.5 0.7-1.5 1.5v24.5c0 2.2 1.8 4 4 4h36c2.2 0 4-1.8 4-4v-24.5c0-0.8-0.7-1.5-1.5-1.5z m-17.5 22v0.2c0 0.8-1 1.8-2 1.8s-2-1-2-2v-10l-1.5 1.6c-0.3 0.3-0.6 0.4-1 0.4-0.8 0-1.5-0.7-1.5-1.5 0-0.4 0.2-0.8 0.5-1.1l3.9-3.9c0.4-0.4 0.9-0.6 1.5-0.6 1.1 0 2.1 0.9 2.1 2v13.1z"></path></svg>

<svg xmlns="http://www.w3.org/2000/svg" x="0px" y="0px"
	 width="52px" height="52px" viewBox="0 0 52 52" enable-background="new 0 0 52 52" xml:space="preserve">
<path fill="#FFFFFF" d="M44,7h-4h-1V5c0-1.6-1.3-3-3-3l0,0c-1.6,0-3,1.3-3,3v2H19V5c0-1.6-1.3-3-3-3l0,0c-1.6,0-3,1.3-3,3v2h-1H8
	c-2.2,0-4,1.8-4,4v2.5C4,14.3,4.7,15,5.5,15h41c0.8,0,1.5-0.7,1.5-1.5V11C48,8.8,46.2,7,44,7z"/>
<path fill="#FFFFFF" d="M46.5,20h-41C4.7,20,4,20.7,4,21.5V46c0,2.2,1.8,4,4,4h36c2.2,0,4-1.8,4-4V21.5C48,20.7,47.3,20,46.5,20z
	 M29,42v0.2c0,0.8-1,1.8-2,1.8c-1,0-2-1-2-2V32l-1.5,1.6c-0.3,0.3-0.6,0.4-1,0.4c-0.8,0-1.5-0.7-1.5-1.5c0-0.4,0.2-0.8,0.5-1.1
	l3.9-3.9c0.4-0.4,0.9-0.6,1.5-0.6c1.1,0,2.1,0.9,2.1,2V42z"/>
</svg>
